!!!!SEGMENT: pl-sa--549-a-ix-29--002_anonim--polonez.krn
!!!cenid: 18xx:458
!!!COM: Anonim
!!!COM-rismid: pe30004985
!!!CDT:
!!!CNT:
!!!OTL: Polonez
!!!PDT:
!!!AGN: Secular; Polonaise
!!!SMS-siglum: PL-SA
!!!SMS-shelfmark: 549/A IX 29
!!!SMS-shelfwork: 002 W
!!!SMS-variant:
!!!SMS-altvar:
!!!NIFC-rismid: 1001068288
!!!URL-scan: http://bc.bdsandomierz.pl/dlibra/publication/1441/edition/1409/content
!!!ONB-nifc: Str. 4 (s. 1-4)
!!!key: B-
!!!OMD: Polonez
**kern	**kern
*part1	*part1
*staff2	*staff1
*clefF4	*clefG2
*I"Piano	*I"Piano
*Ipiano	*Ipiano
*ICklav	*ICklav
*IGsolo	*IGsolo
*>[A,B,A,B,C,A,D,D,E]	*>[A,B,A,B,C,A,D,D,E]
*>A	*>A
*k[e-b-]	*k[e-b-]
*B-:	*B-:
*M3/4	*M3/4
*	*MM60
=1	=1
.	8qeen/
8dL 8B-\	8dd\L
8c\J	8.dd\J
*rep	*
8dL 8B-\	.
.	16ee-y\LL
8c\J	16een\
.	16ff\JJ
*Xrep	*
*rep	*
!	!LO:N:vis=16
8dL 8B-\	8b-\L
8c\J	16b-\L
.	16dd\JJ
*Xrep	*
=2	=2
.	8qdd/
8e-L 8A\	8cc\L
8d\J	16cc\L
.	16bn\JJ
8E-\L	8cc\L
8f\J	16cc\L
.	16b\JJ
8e-L 8A\	8dd\L
8fJ 8A\	8cc\J
=3	=3
*rep	*
8e-L 8A\	8cc\L
8fJ 8A\	8.cc\J
*Xrep	*
*rep	*
8e-L 8A\	.
.	16cc#X\LL
8fJ 8A\	16dd\
.	16ee-\JJ
*Xrep	*
8e-L 8c\	8a\L
8f\J	16a\L
!	!LO:SIC:v:s=16ccn\JJ
.	16cc#\JJ
=4	=4
.	8qcc/
8dL 8B-\	8b-\L
8f\J	16b-\L
.	16a\JJ
.	8qcc/
*rep	*
8dL 8B-\	8b-\L
8f\J	16b-\L
.	16a\JJ
*Xrep	*
*rep	*
8dL 8B-\	16dd\LL
.	16cc\
8f\J	16dd\
.	16ee-\JJ
*Xrep	*
!LO:TX:t=[segno]:problem:znak segno na kresce taktowej	!LO:TX:t=[segno]:problem:znak segno na kresce taktowej
=5	=5
*>B	*>B
16dLL 16B-\	8dd\L
16f\	.
16F\	8.dd\J
16d\JJ	.
*rep	*
16dLL 16B-\	.
16f\	16ee-\LL
16F\	16een\
16d\JJ	16ff\JJ
.	8qcc/
*Xrep	*
*rep	*
16dLL 16B-\	8b-\L
16f\	.
16F\	16b-\L
16d\JJ	16cc\JJ
*Xrep	*
=6	=6
16e-LL 16A\	8cc\L
16f\	.
16F\	16cc\L
16f\JJ	16bn\JJ
*rep	*
16e-LL 16A\	8cc\L
16f\	.
16F\	16cc\L
16f\JJ	16b\JJ
*Xrep	*
!!LO:LB:g=original
*rep	*
16e-LL 16A\	8dd\L
16f\	.
16F\	8cc\J
16f\JJ	.
*Xrep	*
=7	=7
*rep	*
.	8qdd/
16e-LL 16A\	8cc\L
16f\	.
16F\	8.cc\J
16f\JJ	.
*Xrep	*
*rep	*
16e-LL 16A\	.
16f\	16cc#X\LL
16F\	16dd\
16f\JJ	16ee-\JJ
*Xrep	*
16e-LL 16c\	8a\L
16f\	.
16F\	16a\L
!	!LO:SIC:v:s=16ccn\JJ
16f\JJ	16cc#\JJ
=8	=8
8dL 8B-\	16b-\LL
.	16dd\
8c 8A 8F\	16cc\
.	16a\JJ
8d 8B-\	16b-\LL
.	16dd\
8cJ 8F\	16cc\
.	16a\JJ
4B- 4D\	4b-\
=9:|!|:	=9:|!|:
*>C	*>C
*clefG2	*clefG2
8dL 8B-/	4b-\
8f/J	.
*rep	*
8dL 8B-/	4bb-\
8f/J	.
*Xrep	*
*rep	*
8dL 8B-/	8ccc/
8f/J	16bb-\LL
.	16aa\JJ
*Xrep	*
=10	=10
8e-L 8B-/	8gg\L
8g/J	16gg\L
.	16ff#X\JJ
*rep	*
8e-L 8B-/	8gg\L
8g/J	16gg\L
.	16ff#\JJ
*Xrep	*
*rep	*
8e-L 8B-/	8aa\L
8g/J	8gg\J
*Xrep	*
=11	=11
*rep	*
8e-L 8B-/	8gg\L
8g/J	8.gg\J
*Xrep	*
*rep	*
8e-L 8B-/	.
.	16aa\LL
8g/J	16bb-\
.	16aa\JJ
*Xrep	*
*rep	*
8e-L 8B-/	16ccc\LL
.	16bb-\
8g/J	16aa\
.	16gg\JJ
*Xrep	*
=12	=12
.	8qgg/
8dL 8B-/	8ff\L
8f/J	16ff\L
.	16een\JJ
*rep	*
8dL 8B-/	8ff\L
8f/J	16ff\L
.	16ee\JJ
*Xrep	*
8e-L 8A/	16ff\LL
.	16ff#X\
!LO:TX:b:i:t=Ad Signum da Capo	!
8f/J	16gg\
!	!LO:SIC:v:s=16ee-\JJ
.	16ee\JJ
!LO:TX:t=[segno]:problem:znak segno na kresce taktowej	!LO:TX:t=[segno]:problem:znak segno na kresce taktowej
!!LO:LB:g=original
=13||	=13||
!!!OMD: Trio
*>D	*>D
*clefF4	*
*tremolo	*
*2\right	*
!LO:TX:a:t=||||||	!
8B- 8F 8D\L|	16ff\LL
.	16gg\
8B- 8F 8D\|	16ff\
.	16een\JJ
8B- 8F 8D\|	16ff\LL
.	16gg\
8B- 8F 8D\|	16ff\
.	16ee\JJ
8B- 8F 8D\|	8ff\L
8B- 8F 8D\J|	8bb-J 8gg 8dd\
*Xtremolo	*
=14	=14
8r	16gg\LL
.	16aa\
8c 8G 8En\	16gg\
.	16ff#X\JJ
*tremolo	*
!LO:TX:a:t=||||	!
!LO:TX:a:t=P:problem:złe wyświetlanie wartości rytmicznej tremolo	!
!LO:N:TREM:vis=2.	!
8c 8G 8E\L|	16gg\LL
.	16aa\
8c 8G 8E\|	16gg\
.	16ff#\JJ
8c 8G 8E\|	8gg\L
8c 8G 8E\J|	8cccJ 8gg 8ee-\
*Xtremolo	*
=15	=15
.	8qbb-/
8F\L	16aa\LL
.	16gg\J
8e-XJ 8c\	8.ff\J
*rep	*
8F\L	.
.	16gg\LL
8e-XJ 8c\	16ff\
.	16ee-\JJ
*Xrep	*
*rep	*
8F\L	16dd\LL
.	16cc\
8e-XJ 8c\	16b-\
.	16a\JJ
*Xrep	*
=16	=16
8dL 8B-\	16b-\LL
.	16cc\
8F\J	16dd\
.	16ee-\JJ
8cL 8A\	16ff\LL
.	16gg\
8F\J	16aa\
.	16ff\JJ
4B- 4G\	4bb-\
=17:|!|:	=17:|!|:
*>ED	*>E
*tremolo	*
!LO:TX:a:t=|||	!
8e- 8c 8B-\L|	16bbn\LL
.	16ccc\
8F\|	16bb\
.	16ccc\JJ
8e- 8c 8B-\|	16bb-X\LL
.	16aa\
!LO:TX:a:t=|||	!
8F\|	16gg\
.	16ff\JJ
8e- 8c 8B-\|	16een\LL
.	16ff\
8F\J|	16gg\
.	16ee-X\JJ
*Xtremolo	*
!!LO:LB:g=original
=18	=18
!LO:N:vis=8	!
4d 4B-\	8ddL 8b-\
.	8dd 8b-\
4e- 4c\L	8ee- 8cc\
.	8ee- 8cc\
8g 8e- 8c\	8.gg 8.ee-\
8d 8B-\J	.
!	!LO:N:vis=8
.	16ffJ 16dd\
=19	=19
*tremolo	*
8e- 8A 8F\L	16bbn\LL
.	16ccc\
8F\	16ddd\
.	16ccc\JJ
8e- 8A 8F\	16bb-X\LL
.	16aa\
8F\	16ccc 16aa\
.	16bb-JJ 16ff\
8e- 8A 8F\	16aa\LL
.	16gg\
8F\J	16ff\
.	16ee-\JJ
*Xtremolo	*
=20	=20
8dL 8B-\	8ddL 8b-\
8e- 8c\	8gg 8ee-\
8f 8B-\	8ff 8dd\
8e- 8B-\	8ee- 8cc\
8d 8B-\	8dd 8b-\
8cJ 8A 8F\	8ccJ 8a\
==	==
*-	*-
!!!system-decoration: {(s1,s2)}
!!!RDF**kern: | = vertical stroke
!!!ENC: Mateusz Solarz
!!!END: 2020-06-16
!!!ENC: Marta Lawrence
!!!END: 2022--01-03
